X:33
T:A Scotch Quadrill. JBs.033
T:Johnsons Reel,aka. JBs.033
T:My Love She Is But A Lassioe Yet,aka. JBs.033
S:Jas.Blackshaw MS, 1837, N.Shropshire
Z:Tony Weatherall 2006
M:2/4
L:1/8
Q:1/2=100
A:North Shropshire
R:Reel
K:C
c/B/|cCEG|cCC (c/B/)|cCEG|dDD (A/B/)|!
cCEG|cfed|(c/B/A/G/) (A/c/)(B/d/)|ec c:|!
|:(e/f/)|gefd|ec c(e/f/)|gefd|dD D(e/f/)|!
gefd|ec d>B|(c/B/A/G/) ( A/c/)(B/d/)|ec c:|!
|:A|e2a2|câ€™câ€™ câ€™/b/a/g/|f/e/d/c/ Be|d/c/B/c/ Ac|!
e2a2|d2f2|f/e/d/c/ B/A/B/c/|1Ac A:|2c3|]

